X: 633
T: Hangman's Reel
B: jims roots
M:C
L:1/8
Q: 1/4=100
K:A
V:1 
EF | "A"A2AA BABA | BccA BAFG |A2AA BABA | cAcA "E"B2EF |
"A"A2AA BABA | BccA BcAB | cAcA BAFE |"E"FG "A"A2A2 :|
cd | "A"e2cA e2cA | ABcA BAFA | e2cA e2cA | "E"BABc "A"A2c(d |
      e)AcA eAcA | ABcA BAFA | eAcA eAcA | "E"BABc "A"A2 ||
A2 |:"E"B3A B2cB | "A"ABcA BAFA | "E"B2Bc BAF2 | [1 EFED "A"CB,A,2 :|[2 EFED "A"CB, ||
|:A,B, | "A"C2CA, "D"DFED | "A"CA,CA, "D"DFED | "A"C2CA, "D"DFED | "A"CA,CA, "E"B,2B,(C |
"A"C)B,CA, "D"DFED | "A"CA,CA, "D"DFAB | "A"BccA "D"BAFE | "E"FGA2 "A"A2 :|
% abcbook-tune_id 6298c25d38780d6507b2dd51


% abcbook-boost 0
% abcbook-tablature 
% abcbook-transpose 
% abcbook-lastupdated 1654178398601
% abcbook-soundfonts 
% abcbook-repeats 1


